X: 18393
T: Hunstsman, The
R: jig
M: 6/8
K: Amixolydian
AB/c/d e2 A|Aed BAG|EFG AB/c/d|e2 a ged|
cde g2 g-|gag edg|edB ded|BAG ~A3:|
|:a2 e ged|cde gga|eAA AGA|BA cA dA|
ecA dBG|AB/c/d cAG|eab ged|1 BAG A2 b:|2 BAG A z2||

